stepxx_web3/step06_dapps/step02_auth_with_wallet/public/icons/building-columns-solid.svg

<svg xmlns="http://www.w3.org/2000/svg" fill="#ff2800" viewBox="0 0 512 512"><!--! Font Awesome Pro 6.1.1 by @fontawesome - https://fontawesome.com License - https://fontawesome.com/license (Commercial License) Copyright 2022 Fonticons, Inc.--><path d="M243.4 2.587c8-3.45 17.2-3.45 25.2 0l224 96.003c14 6.01 21.8 21.01 18.7 35.81-3 14.9-16.1 24.7-32.2 25.6v8c0 13.3-9.8 24-24 24h-400c-12.36 0-24-10.7-24-24v-8c-14.29-.9-27.392-10.7-30.447-25.6-3.055-14.8 4.776-29.8 18.737-35.81L243.4 2.587zM256 128c17.7 0 32-14.3 32-32 0-17.67-14.3-32-32-32s-32 14.33-32 32c0 17.7 14.3 32 32 32zM127.1 416h40V224h64v192H280V224h64v192h40V224h64v196.3c.6.3 1.2-.2 1.8 1.1l48 32c11.7 7.8 16.9 22.4 12.8 35.9-4.1 13.5-16.5 22.7-30.6 22.7H31.1c-13.2 0-25.642-9.2-29.728-22.7-4.087-13.5 1.143-28.1 12.878-35.9l48-32c.57-1.3 1.16-.8.85-1.1V224h64v192z"/></svg>

<svg xmlns="http://www.w3.org/2000/svg" fill="#ff2800" viewBox="0 0 512 512"><!--! Font Awesome Pro 6.1.1 by @fontawesome - https://fontawesome.com License - https://fontawesome.com/license (Commercial License) Copyright 2022 Fonticons, Inc. --><path d="M243.4 2.587C251.4-.8625 260.6-.8625 268.6 2.587L492.6 98.59C506.6 104.6 514.4 119.6 511.3 134.4C508.3 149.3 495.2 159.1 479.1 160V168C479.1 181.3 469.3 192 455.1 192H55.1C42.74 192 31.1 181.3 31.1 168V160C16.81 159.1 3.708 149.3 .6528 134.4C-2.402 119.6 5.429 104.6 19.39 98.59L243.4 2.587zM256 128C273.7 128 288 113.7 288 96C288 78.33 273.7 64 256 64C238.3 64 224 78.33 224 96C224 113.7 238.3 128 256 128zM127.1 416H167.1V224H231.1V416H280V224H344V416H384V224H448V420.3C448.6 420.6 449.2 420.1 449.8 421.4L497.8 453.4C509.5 461.2 514.7 475.8 510.6 489.3C506.5 502.8 494.1 512 480 512H31.1C17.9 512 5.458 502.8 1.372 489.3C-2.715 475.8 2.515 461.2 14.25 453.4L62.25 421.4C62.82 420.1 63.41 420.6 63.1 420.3V224H127.1V416z"/></svg>
